X: 37148
T: Siobhan O'Donnell's
R: jig
M: 6/8
K: Dmajor
def A2G|FED =c2A|~d3 ~f3|ged cde|
def A2G|FED =c2A|~d3 ~f3|1 gec dBc:|2 gec dag||
fed faf|ged cde|fdf gbg|edB Ad=c|
~B3 BgB|~A3 fdB|~G3 faf|1 gec d2e:|2 gec dBc||

